X:1
T:Toss the Feathers
M:C|
L:1/8
S:Silly Wizard "Live Wizardry" CD
R:reel
N:
N:Silly Wizard "Live Wizardry" CD
Z:Ed Wosika mod of 1997 by John Chambers <jc:trillian.mit.edu>
K:EDor
|: "Em"EB ~B2 dB ~B2 | EBBA "D"FE (3FGA | "Em"BE~E2 BA (3Bcd |1"D"e2 fe
dB AF :|2 "D"e2 fe dBA2 |
||"Em"Beed ~e2de | "D"fede "Em"fe~e2 | (3gfe be (3gfe be | "D"fede "Em"g
e~e2 |
| "Em"Beed ~e2de | "D"faaf "Em"~a2 fa | b2bf a2af | "Em"efed "D"BA (3FED
|
